public/luts/vintage.cube
#Generated with IWLTBAP LUT Generator
#Website: http://luts.iwltbap.com
TITLE "Vintage"
#LUT size
LUT_3D_SIZE 5
#LUT data points
0.000000 0.070588 0.078431
0.078431 0.070588 0.082353
0.407843 0.003922 0.078431
0.843137 0.000000 0.058824
1.000000 0.000000 0.078431
0.000000 0.133333 0.105882
0.054902 0.141176 0.129412
0.462745 0.184314 0.074510
0.862745 0.133333 0.050980
1.000000 0.223529 0.101961
0.027451 0.400000 0.243137
0.223529 0.403922 0.262745
0.435294 0.439216 0.313725
0.835294 0.533333 0.227451
1.000000 0.588235 0.196078
0.470588 0.737255 0.513725
0.545098 0.733333 0.529412
0.666667 0.729412 0.576471
0.807843 0.764706 0.639216
1.000000 0.835294 0.686275
0.890196 0.929412 0.835294
0.898039 0.929412 0.847059
0.921569 0.933333 0.866667
0.960784 0.937255 0.882353
1.000000 0.945098 0.894118
0.000000 0.074510 0.141176
0.074510 0.078431 0.160784
0.415686 0.000000 0.184314
0.839216 0.000000 0.200000
1.000000 0.000000 0.235294
0.003922 0.156863 0.176471
0.086275 0.180392 0.180392
0.462745 0.176471 0.203922
0.854902 0.125490 0.207843
1.000000 0.239216 0.262745
0.003922 0.454902 0.301961
0.231373 0.447059 0.321569
0.454902 0.470588 0.380392
0.858824 0.537255 0.309804
0.996078 0.592157 0.333333
0.466667 0.741176 0.529412
0.549020 0.741176 0.556863
0.658824 0.733333 0.607843
0.815686 0.772549 0.662745
1.000000 0.827451 0.698039
0.882353 0.929412 0.843137
0.898039 0.925490 0.854902
0.933333 0.925490 0.866667
0.964706 0.941176 0.894118
0.996078 0.941176 0.905882
0.000000 0.086275 0.392157
0.000000 0.074510 0.415686
0.427451 0.000000 0.458824
0.843137 0.000000 0.466667
0.996078 0.000000 0.490196
0.007843 0.207843 0.423529
0.003922 0.188235 0.454902
0.478431 0.149020 0.494118
0.854902 0.129412 0.486275
1.000000 0.317647 0.525490
0.000000 0.498039 0.509804
0.019608 0.521569 0.525490
0.533333 0.541176 0.529412
0.854902 0.560784 0.549020
0.992157 0.623529 0.584314
0.411765 0.792157 0.631373
0.513725 0.792157 0.658824
0.690196 0.780392 0.670588
0.835294 0.788235 0.725490
1.000000 0.843137 0.741176
0.866667 0.941176 0.862745
0.866667 0.937255 0.850980
0.913725 0.941176 0.870588
0.956863 0.941176 0.898039
0.996078 0.945098 0.913725
0.000000 0.125490 0.733333
0.000000 0.109804 0.745098
0.372549 0.000000 0.764706
0.831373 0.000000 0.776471
1.000000 0.007843 0.792157
0.003922 0.239216 0.749020
0.000000 0.239216 0.752941
0.415686 0.211765 0.776471
0.850980 0.121569 0.796078
0.992157 0.329412 0.788235
0.000000 0.564706 0.764706
0.200000 0.572549 0.760784
0.513725 0.552941 0.792157
0.866667 0.545098 0.803922
1.000000 0.623529 0.803922
0.345098 0.811765 0.803922
0.439216 0.807843 0.803922
0.643137 0.815686 0.811765
0.858824 0.819608 0.811765
1.000000 0.835294 0.843137
0.776471 0.960784 0.898039
0.803922 0.952941 0.894118
0.874510 0.956863 0.898039
0.956863 0.956863 0.917647
0.996078 0.956863 0.949020
0.000000 0.321569 0.972549
0.200000 0.309804 0.972549
0.564706 0.290196 0.980392
0.898039 0.215686 0.976471
1.000000 0.321569 0.980392
0.074510 0.435294 0.956863
0.309804 0.431373 0.980392
0.603922 0.419608 0.976471
0.894118 0.384314 0.980392
1.000000 0.443137 0.984314
0.407843 0.694118 0.964706
0.501961 0.694118 0.964706
0.643137 0.654902 0.972549
0.886275 0.635294 0.976471
1.000000 0.654902 0.984314
0.643137 0.866667 0.972549
0.678431 0.862745 0.972549
0.764706 0.866667 0.964706
0.882353 0.839216 0.972549
0.996078 0.831373 0.988235
0.764706 0.952941 0.960784
0.788235 0.960784 0.964706
0.843137 0.960784 0.968627
0.925490 0.964706 0.972549
1.000000 0.968627 0.972549
