public/luts/vintage.cube
#Generated with IWLTBAP LUT Generator
#Website: http://luts.iwltbap.com
TITLE "Vintage"
#LUT size
LUT_3D_SIZE 9
#LUT data points
0.000000 0.070588 0.078431
0.011765 0.070588 0.082353
0.078431 0.070588 0.082353
0.219608 0.066667 0.078431
0.407843 0.003922 0.078431
0.635294 0.003922 0.074510
0.843137 0.000000 0.058824
1.000000 0.000000 0.062745
1.000000 0.000000 0.078431
0.000000 0.094118 0.082353
0.000000 0.078431 0.082353
0.094118 0.101961 0.090196
0.231373 0.101961 0.082353
0.419608 0.070588 0.078431
0.647059 0.000000 0.066667
0.843137 0.000000 0.070588
0.996078 0.000000 0.058824
1.000000 0.000000 0.086275
0.000000 0.133333 0.105882
0.003922 0.129412 0.109804
0.054902 0.141176 0.129412
0.239216 0.172549 0.101961
0.462745 0.184314 0.074510
0.678431 0.164706 0.054902
0.862745 0.133333 0.050980
0.996078 0.129412 0.058824
1.000000 0.223529 0.101961
0.000000 0.243137 0.168627
0.023529 0.231373 0.160784
0.121569 0.243137 0.180392
0.215686 0.258824 0.192157
0.427451 0.313725 0.180392
0.674510 0.341176 0.078431
0.866667 0.333333 0.043137
1.000000 0.341176 0.070588
1.000000 0.400000 0.133333
0.027451 0.400000 0.243137
0.129412 0.415686 0.239216
0.223529 0.403922 0.262745
0.317647 0.415686 0.290196
0.435294 0.439216 0.313725
0.619608 0.498039 0.313725
0.835294 0.533333 0.227451
1.000000 0.549020 0.133333
1.000000 0.588235 0.196078
0.254902 0.600000 0.364706
0.290196 0.607843 0.376471
0.364706 0.592157 0.396078
0.443137 0.596078 0.419608
0.541176 0.611765 0.447059
0.643137 0.627451 0.478431
0.780392 0.670588 0.517647
0.945098 0.713725 0.447059
1.000000 0.745098 0.427451
0.470588 0.737255 0.513725
0.505882 0.737255 0.525490
0.545098 0.733333 0.529412
0.607843 0.729412 0.564706
0.666667 0.729412 0.576471
0.733333 0.749020 0.619608
0.807843 0.764706 0.639216
0.894118 0.800000 0.705882
1.000000 0.835294 0.686275
0.709804 0.847059 0.682353
0.725490 0.850980 0.690196
0.745098 0.847059 0.709804
0.780392 0.847059 0.721569
0.811765 0.847059 0.725490
0.854902 0.854902 0.760784
0.898039 0.854902 0.776471
0.941176 0.866667 0.807843
0.964706 0.886275 0.850980
0.890196 0.929412 0.835294
0.894118 0.933333 0.839216
0.898039 0.929412 0.847059
0.909804 0.925490 0.858824
0.921569 0.933333 0.866667
0.949020 0.933333 0.886275
0.960784 0.937255 0.882353
0.988235 0.949020 0.909804
1.000000 0.945098 0.894118
0.000000 0.074510 0.098039
0.003922 0.070588 0.101961
0.082353 0.070588 0.098039
0.223529 0.058824 0.105882
0.407843 0.000000 0.105882
0.639216 0.000000 0.105882
0.843137 0.000000 0.121569
0.992157 0.000000 0.109804
1.000000 0.000000 0.133333
0.000000 0.098039 0.101961
0.003922 0.098039 0.105882
0.082353 0.098039 0.101961
0.239216 0.098039 0.113725
0.419608 0.066667 0.105882
0.643137 0.000000 0.113725
0.835294 0.000000 0.109804
0.996078 0.000000 0.113725
1.000000 0.000000 0.145098
0.000000 0.149020 0.137255
0.000000 0.149020 0.137255
0.070588 0.149020 0.145098
0.254902 0.180392 0.125490
0.462745 0.184314 0.113725
0.670588 0.160784 0.105882
0.854902 0.129412 0.121569
1.000000 0.121569 0.121569
1.000000 0.219608 0.156863
0.003922 0.250980 0.176471
0.007843 0.254902 0.180392
0.129412 0.247059 0.200000
0.219608 0.266667 0.211765
0.435294 0.313725 0.192157
0.682353 0.341176 0.129412
0.866667 0.337255 0.117647
0.996078 0.349020 0.137255
1.000000 0.403922 0.180392
0.003922 0.415686 0.254902
0.109804 0.415686 0.262745
0.223529 0.407843 0.282353
0.321569 0.419608 0.301961
0.435294 0.447059 0.333333
0.619608 0.498039 0.325490
0.843137 0.529412 0.250980
0.992157 0.549020 0.180392
0.996078 0.588235 0.247059
0.247059 0.603922 0.380392
0.282353 0.600000 0.372549
0.364706 0.592157 0.396078
0.450980 0.588235 0.423529
0.545098 0.603922 0.450980
0.647059 0.623529 0.482353
0.772549 0.674510 0.513725
0.949020 0.721569 0.474510
0.996078 0.749020 0.435294
0.466667 0.737255 0.525490
0.505882 0.741176 0.529412
0.537255 0.733333 0.533333
0.603922 0.725490 0.560784
0.662745 0.729412 0.588235
0.733333 0.749020 0.611765
0.823529 0.764706 0.643137
0.890196 0.796078 0.686275
1.000000 0.835294 0.698039
0.709804 0.847059 0.682353
0.725490 0.850980 0.705882
0.745098 0.847059 0.701961
0.764706 0.847059 0.717647
0.811765 0.843137 0.749020
0.850980 0.850980 0.756863
0.894118 0.850980 0.772549
0.937255 0.862745 0.796078
0.972549 0.882353 0.850980
0.874510 0.929412 0.839216
0.890196 0.921569 0.839216
0.901961 0.933333 0.850980
0.917647 0.929412 0.854902
0.933333 0.925490 0.866667
0.945098 0.933333 0.874510
0.956863 0.945098 0.886275
0.992157 0.941176 0.905882
0.988235 0.949020 0.909804
0.000000 0.074510 0.141176
0.000000 0.070588 0.149020
0.074510 0.078431 0.160784
0.227451 0.058824 0.176471
0.415686 0.000000 0.184314
0.650980 0.000000 0.188235
0.839216 0.000000 0.200000
1.000000 0.003922 0.215686
1.000000 0.000000 0.235294
0.000000 0.098039 0.176471
0.011765 0.098039 0.152941
0.074510 0.101961 0.164706
0.239216 0.090196 0.180392
0.431373 0.039216 0.180392
0.650980 0.000000 0.188235
0.839216 0.000000 0.200000
0.996078 0.000000 0.211765
1.000000 0.000000 0.235294
0.003922 0.156863 0.176471
0.003922 0.164706 0.180392
0.086275 0.180392 0.180392
0.266667 0.180392 0.192157
0.462745 0.176471 0.203922
0.678431 0.149020 0.203922
0.854902 0.125490 0.207843
1.000000 0.149020 0.223529
1.000000 0.239216 0.262745
0.000000 0.286275 0.219608
0.003922 0.290196 0.223529
0.149020 0.290196 0.250980
0.247059 0.290196 0.266667
0.478431 0.337255 0.235294
0.694118 0.341176 0.207843
0.862745 0.337255 0.223529
0.992157 0.360784 0.247059
1.000000 0.419608 0.282353
0.003922 0.454902 0.301961
0.066667 0.450980 0.298039
0.231373 0.447059 0.321569
0.345098 0.435294 0.356863
0.454902 0.470588 0.380392
0.647059 0.517647 0.356863
0.858824 0.537255 0.309804
1.000000 0.549020 0.286275
0.996078 0.592157 0.333333
0.254902 0.623529 0.415686
0.290196 0.619608 0.415686
0.372549 0.619608 0.435294
0.470588 0.607843 0.450980
0.564706 0.619608 0.490196
0.654902 0.635294 0.509804
0.780392 0.678431 0.541176
0.956863 0.725490 0.498039
0.992157 0.745098 0.466667
0.466667 0.741176 0.529412
0.498039 0.749020 0.545098
0.549020 0.741176 0.556863
0.603922 0.741176 0.584314
0.658824 0.733333 0.607843
0.733333 0.752941 0.627451
0.815686 0.772549 0.662745
0.905882 0.803922 0.713725
1.000000 0.827451 0.698039
0.709804 0.850980 0.701961
0.717647 0.850980 0.705882
0.745098 0.850980 0.713725
0.772549 0.847059 0.721569
0.811765 0.843137 0.752941
0.854902 0.843137 0.768627
0.898039 0.854902 0.784314
0.937255 0.862745 0.803922
0.980392 0.874510 0.839216
0.882353 0.929412 0.843137
0.878431 0.933333 0.843137
0.898039 0.925490 0.854902
0.917647 0.921569 0.858824
0.933333 0.925490 0.866667
0.949020 0.933333 0.886275
0.964706 0.941176 0.894118
0.980392 0.956863 0.901961
0.996078 0.941176 0.905882
0.000000 0.078431 0.247059
0.007843 0.074510 0.247059
0.031373 0.078431 0.266667
0.219608 0.047059 0.286275
0.435294 0.000000 0.317647
0.666667 0.000000 0.313725
0.854902 0.003922 0.313725
0.996078 0.000000 0.337255
1.000000 0.000000 0.360784
0.000000 0.105882 0.258824
0.000000 0.101961 0.270588
0.031373 0.098039 0.270588
0.235294 0.074510 0.294118
0.443137 0.007843 0.309804
0.658824 0.000000 0.313725
0.843137 0.000000 0.321569
0.996078 0.000000 0.337255
1.000000 0.074510 0.380392
0.000000 0.188235 0.278431
0.007843 0.188235 0.282353
0.035294 0.176471 0.317647
0.278431 0.176471 0.321569
0.474510 0.168627 0.325490
0.678431 0.145098 0.333333
0.854902 0.145098 0.345098
1.000000 0.196078 0.356863
1.000000 0.286275 0.384314
0.000000 0.305882 0.325490
0.000000 0.309804 0.329412
0.058824 0.321569 0.345098
0.290196 0.333333 0.349020
0.498039 0.341176 0.345098
0.686275 0.349020 0.360784
0.862745 0.360784 0.364706
1.000000 0.392157 0.376471
1.000000 0.447059 0.411765
0.003922 0.490196 0.380392
0.007843 0.494118 0.392157
0.176471 0.501961 0.400000
0.380392 0.486275 0.419608
0.498039 0.501961 0.447059
0.686275 0.541176 0.435294
0.866667 0.545098 0.400000
0.988235 0.564706 0.415686
0.996078 0.607843 0.447059
0.211765 0.654902 0.482353
0.278431 0.650980 0.478431
0.392157 0.650980 0.501961
0.486275 0.643137 0.509804
0.588235 0.635294 0.541176
0.678431 0.658824 0.572549
0.803922 0.701961 0.572549
0.968627 0.725490 0.541176
0.992157 0.749020 0.525490
0.490196 0.768627 0.596078
0.505882 0.772549 0.588235
0.556863 0.764706 0.592157
0.623529 0.756863 0.619608
0.686275 0.749020 0.635294
0.752941 0.760784 0.666667
0.823529 0.780392 0.694118
0.917647 0.807843 0.721569
0.996078 0.843137 0.713725
0.698039 0.862745 0.713725
0.701961 0.858824 0.725490
0.729412 0.862745 0.733333
0.780392 0.858824 0.749020
0.819608 0.850980 0.768627
0.854902 0.850980 0.780392
0.901961 0.854902 0.800000
0.941176 0.874510 0.811765
0.972549 0.894118 0.858824
0.874510 0.929412 0.831373
0.878431 0.937255 0.862745
0.894118 0.929412 0.854902
0.913725 0.929412 0.862745
0.925490 0.937255 0.870588
0.949020 0.933333 0.886275
0.964706 0.941176 0.894118
0.976471 0.952941 0.898039
1.000000 0.945098 0.909804
0.000000 0.086275 0.392157
0.000000 0.086275 0.400000
0.000000 0.074510 0.415686
0.196078 0.035294 0.443137
0.427451 0.000000 0.458824
0.662745 0.000000 0.474510
0.843137 0.000000 0.466667
0.996078 0.000000 0.486275
0.996078 0.000000 0.490196
0.000000 0.121569 0.415686
0.000000 0.109804 0.415686
0.000000 0.105882 0.431373
0.203922 0.082353 0.447059
0.435294 0.000000 0.470588
0.658824 0.000000 0.474510
0.854902 0.000000 0.482353
0.996078 0.007843 0.490196
1.000000 0.125490 0.505882
0.007843 0.207843 0.423529
0.003922 0.207843 0.443137
0.003922 0.188235 0.454902
0.239216 0.188235 0.470588
0.478431 0.149020 0.494118
0.674510 0.121569 0.490196
0.854902 0.129412 0.486275
1.000000 0.196078 0.490196
1.000000 0.317647 0.525490
0.003922 0.329412 0.447059
0.000000 0.337255 0.466667
0.000000 0.352941 0.466667
0.266667 0.337255 0.486275
0.509804 0.325490 0.505882
0.690196 0.352941 0.498039
0.847059 0.372549 0.509804
0.992157 0.415686 0.525490
0.996078 0.474510 0.556863
0.000000 0.498039 0.509804
0.003922 0.509804 0.529412
0.019608 0.521569 0.525490
0.329412 0.525490 0.513725
0.533333 0.541176 0.529412
0.705882 0.549020 0.541176
0.854902 0.560784 0.549020
0.980392 0.580392 0.560784
0.992157 0.623529 0.584314
0.000000 0.690196 0.576471
0.003922 0.690196 0.576471
0.270588 0.678431 0.572549
0.466667 0.678431 0.584314
0.615686 0.666667 0.600000
0.701961 0.678431 0.631373
0.839216 0.713725 0.623529
0.976471 0.725490 0.588235
1.000000 0.756863 0.627451
0.411765 0.792157 0.631373
0.458824 0.788235 0.647059
0.513725 0.792157 0.658824
0.615686 0.776471 0.650980
0.690196 0.780392 0.670588
0.764706 0.768627 0.698039
0.835294 0.788235 0.725490
0.929412 0.815686 0.752941
1.000000 0.843137 0.741176
0.658824 0.870588 0.737255
0.694118 0.870588 0.749020
0.737255 0.866667 0.752941
0.768627 0.862745 0.760784
0.811765 0.858824 0.772549
0.858824 0.862745 0.800000
0.898039 0.866667 0.823529
0.945098 0.874510 0.835294
0.988235 0.901961 0.858824
0.866667 0.941176 0.862745
0.866667 0.941176 0.854902
0.866667 0.937255 0.850980
0.894118 0.941176 0.862745
0.913725 0.941176 0.870588
0.937255 0.941176 0.886275
0.956863 0.941176 0.898039
0.984314 0.949020 0.913725
0.996078 0.945098 0.913725
0.000000 0.098039 0.560784
0.000000 0.098039 0.580392
0.003922 0.086275 0.576471
0.133333 0.050980 0.596078
0.407843 0.000000 0.615686
0.643137 0.000000 0.631373
0.847059 0.003922 0.643137
1.000000 0.000000 0.643137
1.000000 0.000000 0.654902
0.003922 0.133333 0.584314
0.000000 0.125490 0.580392
0.003922 0.117647 0.588235
0.125490 0.098039 0.603922
0.407843 0.000000 0.623529
0.650980 0.003922 0.647059
0.847059 0.000000 0.639216
0.980392 0.007843 0.631373
1.000000 0.141176 0.650980
0.000000 0.223529 0.603922
0.003922 0.215686 0.600000
0.000000 0.211765 0.603922
0.168627 0.203922 0.615686
0.431373 0.164706 0.639216
0.666667 0.117647 0.639216
0.858824 0.109804 0.654902
1.000000 0.192157 0.647059
0.996078 0.309804 0.666667
0.000000 0.372549 0.607843
0.000000 0.376471 0.615686
0.000000 0.372549 0.611765
0.239216 0.349020 0.639216
0.470588 0.345098 0.643137
0.682353 0.333333 0.654902
0.854902 0.360784 0.650980
0.988235 0.415686 0.662745
1.000000 0.482353 0.690196
0.003922 0.517647 0.635294
0.007843 0.517647 0.643137
0.109804 0.533333 0.635294
0.356863 0.541176 0.650980
0.517647 0.537255 0.650980
0.701961 0.541176 0.674510
0.854902 0.564706 0.670588
0.984314 0.580392 0.686275
1.000000 0.619608 0.698039
0.000000 0.682353 0.674510
0.035294 0.678431 0.674510
0.270588 0.678431 0.674510
0.427451 0.686275 0.678431
0.572549 0.694118 0.674510
0.713725 0.698039 0.694118
0.862745 0.705882 0.698039
0.972549 0.717647 0.701961
0.996078 0.741176 0.725490
0.227451 0.803922 0.729412
0.286275 0.807843 0.725490
0.392157 0.815686 0.721569
0.521569 0.807843 0.733333
0.658824 0.803922 0.737255
0.784314 0.796078 0.752941
0.843137 0.803922 0.768627
0.945098 0.831373 0.776471
1.000000 0.835294 0.752941
0.611765 0.886275 0.784314
0.627451 0.886275 0.780392
0.666667 0.886275 0.788235
0.725490 0.874510 0.792157
0.800000 0.870588 0.807843
0.858824 0.866667 0.815686
0.909804 0.870588 0.835294
0.952941 0.878431 0.854902
0.984314 0.905882 0.862745
0.819608 0.952941 0.847059
0.835294 0.949020 0.862745
0.850980 0.949020 0.866667
0.878431 0.952941 0.874510
0.898039 0.941176 0.874510
0.941176 0.945098 0.890196
0.960784 0.945098 0.909804
0.984314 0.949020 0.921569
0.988235 0.952941 0.917647
0.000000 0.125490 0.733333
0.003922 0.121569 0.741176
0.000000 0.109804 0.745098
0.000000 0.082353 0.752941
0.372549 0.000000 0.764706
0.611765 0.000000 0.776471
0.831373 0.000000 0.776471
0.996078 0.003922 0.796078
1.000000 0.007843 0.792157
0.000000 0.156863 0.745098
0.000000 0.156863 0.741176
0.003922 0.149020 0.737255
0.000000 0.137255 0.749020
0.384314 0.070588 0.749020
0.619608 0.000000 0.776471
0.839216 0.000000 0.788235
0.984314 0.003922 0.780392
1.000000 0.168627 0.788235
0.003922 0.239216 0.749020
0.003922 0.231373 0.752941
0.000000 0.239216 0.752941
0.109804 0.223529 0.756863
0.415686 0.211765 0.776471
0.635294 0.160784 0.776471
0.850980 0.121569 0.796078
1.000000 0.188235 0.788235
0.992157 0.329412 0.788235
0.000000 0.407843 0.756863
0.000000 0.411765 0.756863
0.011765 0.396078 0.776471
0.227451 0.380392 0.776471
0.466667 0.368627 0.776471
0.670588 0.356863 0.792157
0.854902 0.360784 0.792157
0.984314 0.411765 0.807843
1.000000 0.490196 0.803922
0.000000 0.564706 0.764706
0.003922 0.568627 0.764706
0.200000 0.572549 0.760784
0.388235 0.572549 0.776471
0.513725 0.552941 0.792157
0.690196 0.549020 0.800000
0.866667 0.545098 0.803922
0.972549 0.576471 0.803922
1.000000 0.623529 0.803922
0.160784 0.694118 0.780392
0.227451 0.698039 0.792157
0.329412 0.701961 0.788235
0.466667 0.709804 0.792157
0.580392 0.721569 0.784314
0.717647 0.709804 0.796078
0.858824 0.705882 0.811765
0.960784 0.717647 0.807843
1.000000 0.737255 0.807843
0.345098 0.811765 0.803922
0.364706 0.807843 0.800000
0.439216 0.807843 0.803922
0.533333 0.811765 0.796078
0.643137 0.815686 0.811765
0.764706 0.819608 0.819608
0.858824 0.819608 0.811765
0.960784 0.819608 0.819608
1.000000 0.835294 0.843137
0.517647 0.894118 0.847059
0.533333 0.901961 0.839216
0.580392 0.894118 0.850980
0.647059 0.898039 0.843137
0.752941 0.894118 0.847059
0.839216 0.894118 0.843137
0.913725 0.874510 0.866667
0.952941 0.894118 0.882353
1.000000 0.913725 0.882353
0.776471 0.960784 0.898039
0.788235 0.956863 0.878431
0.803922 0.952941 0.894118
0.831373 0.960784 0.894118
0.874510 0.956863 0.898039
0.913725 0.956863 0.901961
0.956863 0.956863 0.917647
0.984314 0.956863 0.925490
0.996078 0.956863 0.949020
0.000000 0.172549 0.866667
0.000000 0.172549 0.874510
0.000000 0.164706 0.878431
0.019608 0.152941 0.878431
0.407843 0.098039 0.894118
0.650980 0.003922 0.894118
0.847059 0.000000 0.905882
1.000000 0.000000 0.901961
1.000000 0.109804 0.905882
0.003922 0.211765 0.870588
0.000000 0.207843 0.878431
0.000000 0.207843 0.878431
0.105882 0.196078 0.894118
0.427451 0.156863 0.898039
0.650980 0.074510 0.905882
0.847059 0.003922 0.898039
1.000000 0.003922 0.898039
1.000000 0.207843 0.905882
0.000000 0.298039 0.878431
0.015686 0.298039 0.874510
0.000000 0.298039 0.870588
0.200000 0.298039 0.901961
0.450980 0.274510 0.874510
0.662745 0.250980 0.886275
0.858824 0.203922 0.901961
0.988235 0.247059 0.894118
1.000000 0.345098 0.898039
0.000000 0.470588 0.890196
0.007843 0.458824 0.878431
0.000000 0.443137 0.882353
0.305882 0.435294 0.886275
0.505882 0.423529 0.882353
0.690196 0.411765 0.890196
0.866667 0.400000 0.894118
0.992157 0.427451 0.901961
1.000000 0.494118 0.898039
0.152941 0.619608 0.878431
0.211765 0.615686 0.874510
0.313725 0.615686 0.882353
0.447059 0.603922 0.874510
0.556863 0.584314 0.890196
0.705882 0.576471 0.886275
0.874510 0.568627 0.898039
0.988235 0.584314 0.909804
1.000000 0.623529 0.901961
0.337255 0.749020 0.874510
0.384314 0.749020 0.882353
0.435294 0.749020 0.878431
0.509804 0.745098 0.878431
0.611765 0.741176 0.878431
0.721569 0.729412 0.890196
0.858824 0.709804 0.894118
0.980392 0.713725 0.898039
1.000000 0.741176 0.886275
0.462745 0.831373 0.878431
0.486275 0.831373 0.886275
0.521569 0.831373 0.882353
0.603922 0.831373 0.886275
0.690196 0.831373 0.894118
0.788235 0.835294 0.882353
0.866667 0.823529 0.890196
0.964706 0.815686 0.898039
1.000000 0.839216 0.909804
0.596078 0.890196 0.901961
0.615686 0.894118 0.901961
0.643137 0.894118 0.894118
0.698039 0.894118 0.890196
0.752941 0.886275 0.894118
0.831373 0.890196 0.901961
0.905882 0.898039 0.909804
0.960784 0.905882 0.905882
1.000000 0.905882 0.917647
0.733333 0.972549 0.941176
0.737255 0.968627 0.945098
0.741176 0.976471 0.937255
0.788235 0.964706 0.937255
0.819608 0.976471 0.941176
0.886275 0.968627 0.933333
0.933333 0.972549 0.937255
0.984314 0.964706 0.949020
0.988235 0.968627 0.956863
0.000000 0.321569 0.972549
0.000000 0.317647 0.976471
0.200000 0.309804 0.972549
0.392157 0.305882 0.976471
0.564706 0.290196 0.980392
0.733333 0.254902 0.984314
0.898039 0.215686 0.976471
0.996078 0.176471 0.980392
1.000000 0.321569 0.980392
0.000000 0.352941 0.972549
0.003922 0.341176 0.972549
0.231373 0.345098 0.980392
0.407843 0.345098 0.976471
0.576471 0.329412 0.980392
0.733333 0.305882 0.976471
0.898039 0.274510 0.984314
0.992157 0.247059 0.984314
1.000000 0.360784 0.984314
0.074510 0.435294 0.956863
0.180392 0.427451 0.972549
0.309804 0.431373 0.980392
0.450980 0.423529 0.964706
0.603922 0.419608 0.976471
0.756863 0.403922 0.980392
0.894118 0.384314 0.980392
0.996078 0.364706 0.976471
1.000000 0.443137 0.984314
0.298039 0.568627 0.972549
0.313725 0.556863 0.960784
0.388235 0.549020 0.964706
0.498039 0.545098 0.968627
0.635294 0.541176 0.972549
0.760784 0.525490 0.972549
0.894118 0.513725 0.968627
1.000000 0.498039 0.980392
1.000000 0.545098 0.980392
0.407843 0.694118 0.964706
0.439216 0.694118 0.960784
0.501961 0.694118 0.964706
0.545098 0.670588 0.964706
0.643137 0.654902 0.972549
0.772549 0.647059 0.972549
0.886275 0.635294 0.976471
0.988235 0.623529 0.972549
1.000000 0.654902 0.984314
0.545098 0.800000 0.956863
0.541176 0.807843 0.952941
0.580392 0.796078 0.956863
0.623529 0.792157 0.968627
0.690196 0.768627 0.964706
0.772549 0.752941 0.964706
0.878431 0.749020 0.972549
0.976471 0.741176 0.976471
0.996078 0.756863 0.980392
0.643137 0.866667 0.972549
0.654902 0.866667 0.960784
0.678431 0.862745 0.972549
0.713725 0.858824 0.960784
0.764706 0.866667 0.964706
0.815686 0.854902 0.960784
0.882353 0.839216 0.972549
0.968627 0.835294 0.980392
0.996078 0.831373 0.988235
0.729412 0.917647 0.972549
0.741176 0.913725 0.964706
0.752941 0.917647 0.972549
0.780392 0.909804 0.968627
0.811765 0.913725 0.980392
0.862745 0.917647 0.968627
0.913725 0.909804 0.964706
0.960784 0.913725 0.968627
0.996078 0.913725 0.980392
0.764706 0.952941 0.960784
0.772549 0.960784 0.968627
0.788235 0.960784 0.964706
0.819608 0.956863 0.972549
0.843137 0.960784 0.968627
0.878431 0.960784 0.964706
0.925490 0.964706 0.972549
0.968627 0.968627 0.976471
1.000000 0.968627 0.972549
