public/luts/vintage.cube
#Generated with IWLTBAP LUT Generator
#Website: http://luts.iwltbap.com
TITLE "Vintage"
#LUT size
LUT_3D_SIZE 25
#LUT data points
0.000000 0.070588 0.078431
0.000000 0.066667 0.074510
0.000000 0.074510 0.078431
0.011765 0.070588 0.082353
0.031373 0.070588 0.078431
0.054902 0.074510 0.086275
0.078431 0.070588 0.082353
0.121569 0.074510 0.082353
0.164706 0.066667 0.082353
0.219608 0.066667 0.078431
0.278431 0.054902 0.078431
0.345098 0.043137 0.082353
0.407843 0.003922 0.078431
0.482353 0.000000 0.078431
0.560784 0.000000 0.070588
0.635294 0.003922 0.074510
0.709804 0.000000 0.082353
0.776471 0.000000 0.058824
0.843137 0.000000 0.058824
0.894118 0.000000 0.066667
0.949020 0.000000 0.062745
1.000000 0.000000 0.062745
1.000000 0.000000 0.062745
0.992157 0.003922 0.062745
1.000000 0.000000 0.078431
0.000000 0.070588 0.078431
0.000000 0.070588 0.086275
0.000000 0.074510 0.098039
0.000000 0.074510 0.070588
0.023529 0.078431 0.078431
0.043137 0.074510 0.082353
0.082353 0.082353 0.082353
0.121569 0.074510 0.074510
0.172549 0.078431 0.078431
0.219608 0.078431 0.078431
0.274510 0.070588 0.086275
0.337255 0.050980 0.078431
0.407843 0.023529 0.082353
0.486275 0.003922 0.082353
0.556863 0.003922 0.078431
0.639216 0.000000 0.074510
0.709804 0.000000 0.066667
0.776471 0.000000 0.058824
0.843137 0.000000 0.062745
0.894118 0.000000 0.058824
0.960784 0.000000 0.058824
1.000000 0.000000 0.062745
1.000000 0.000000 0.070588
1.000000 0.000000 0.070588
0.992157 0.000000 0.078431
0.000000 0.078431 0.082353
0.000000 0.078431 0.090196
0.015686 0.074510 0.086275
0.000000 0.086275 0.074510
0.027451 0.090196 0.090196
0.058824 0.082353 0.082353
0.086275 0.086275 0.086275
0.121569 0.090196 0.082353
0.168627 0.090196 0.086275
0.231373 0.078431 0.082353
0.278431 0.074510 0.082353
0.345098 0.066667 0.082353
0.419608 0.043137 0.086275
0.482353 0.000000 0.078431
0.568627 0.000000 0.078431
0.635294 0.003922 0.066667
0.709804 0.000000 0.058824
0.776471 0.000000 0.066667
0.843137 0.000000 0.062745
0.894118 0.000000 0.058824
0.949020 0.000000 0.062745
0.996078 0.000000 0.058824
1.000000 0.000000 0.062745
1.000000 0.000000 0.070588
1.000000 0.000000 0.078431
0.000000 0.094118 0.082353
0.003922 0.086275 0.098039
0.000000 0.090196 0.090196
0.000000 0.078431 0.082353
0.000000 0.098039 0.086275
0.039216 0.098039 0.078431
0.094118 0.101961 0.090196
0.133333 0.105882 0.082353
0.176471 0.101961 0.078431
0.231373 0.101961 0.082353
0.290196 0.098039 0.082353
0.356863 0.082353 0.082353
0.419608 0.070588 0.078431
0.494118 0.039216 0.074510
0.572549 0.003922 0.070588
0.647059 0.000000 0.066667
0.713725 0.003922 0.070588
0.776471 0.000000 0.066667
0.843137 0.000000 0.070588
0.886275 0.003922 0.058824
0.945098 0.003922 0.054902
0.996078 0.000000 0.058824
1.000000 0.000000 0.062745
1.000000 0.000000 0.078431
1.000000 0.000000 0.086275
0.000000 0.098039 0.086275
0.000000 0.098039 0.086275
0.000000 0.098039 0.094118
0.000000 0.101961 0.098039
0.000000 0.094118 0.101961
0.027451 0.098039 0.105882
0.066667 0.109804 0.094118
0.129412 0.117647 0.082353
0.188235 0.121569 0.082353
0.235294 0.125490 0.082353
0.294118 0.121569 0.078431
0.352941 0.117647 0.086275
0.431373 0.105882 0.074510
0.498039 0.090196 0.078431
0.580392 0.058824 0.070588
0.647059 0.015686 0.074510
0.713725 0.000000 0.058824
0.780392 0.003922 0.070588
0.843137 0.000000 0.058824
0.890196 0.003922 0.058824
0.941176 0.000000 0.062745
0.992157 0.003922 0.062745
1.000000 0.003922 0.047059
1.000000 0.000000 0.070588
1.000000 0.000000 0.086275
0.000000 0.109804 0.094118
0.000000 0.109804 0.101961
0.000000 0.113725 0.105882
0.000000 0.113725 0.105882
0.000000 0.113725 0.105882
0.015686 0.117647 0.105882
0.058824 0.125490 0.101961
0.113725 0.133333 0.109804
0.176471 0.149020 0.086275
0.243137 0.152941 0.090196
0.309804 0.156863 0.090196
0.376471 0.152941 0.086275
0.454902 0.145098 0.078431
0.529412 0.137255 0.074510
0.603922 0.121569 0.062745
0.678431 0.101961 0.062745
0.741176 0.078431 0.058824
0.800000 0.043137 0.054902
0.854902 0.000000 0.054902
0.909804 0.000000 0.054902
0.956863 0.011765 0.047059
1.000000 0.000000 0.062745
0.996078 0.000000 0.066667
1.000000 0.078431 0.086275
0.996078 0.149020 0.105882
0.000000 0.133333 0.105882
0.000000 0.137255 0.105882
0.003922 0.125490 0.105882
0.003922 0.129412 0.109804
0.011765 0.129412 0.121569
0.047059 0.133333 0.121569
0.054902 0.141176 0.129412
0.086275 0.145098 0.125490
0.156863 0.164706 0.113725
0.239216 0.172549 0.101961
0.317647 0.176471 0.082353
0.396078 0.184314 0.074510
0.462745 0.184314 0.074510
0.545098 0.176471 0.066667
0.611765 0.176471 0.066667
0.678431 0.164706 0.054902
0.745098 0.149020 0.058824
0.807843 0.137255 0.058824
0.862745 0.133333 0.050980
0.909804 0.121569 0.043137
0.964706 0.121569 0.050980
0.996078 0.129412 0.058824
0.992157 0.149020 0.066667
0.996078 0.176471 0.086275
1.000000 0.223529 0.101961
0.000000 0.160784 0.133333
0.000000 0.156863 0.125490
0.000000 0.160784 0.129412
0.000000 0.160784 0.137255
0.015686 0.160784 0.133333
0.039216 0.168627 0.125490
0.070588 0.168627 0.145098
0.098039 0.172549 0.149020
0.133333 0.184314 0.145098
0.207843 0.203922 0.133333
0.286275 0.219608 0.117647
0.376471 0.223529 0.094118
0.474510 0.231373 0.078431
0.549020 0.231373 0.062745
0.619608 0.231373 0.070588
0.690196 0.231373 0.058824
0.756863 0.219608 0.054902
0.803922 0.207843 0.047059
0.862745 0.203922 0.050980
0.909804 0.203922 0.058824
0.960784 0.207843 0.062745
1.000000 0.211765 0.054902
1.000000 0.227451 0.074510
0.996078 0.254902 0.105882
1.000000 0.278431 0.117647
0.003922 0.192157 0.137255
0.000000 0.200000 0.137255
0.003922 0.192157 0.137255
0.007843 0.192157 0.152941
0.035294 0.192157 0.149020
0.070588 0.192157 0.160784
0.101961 0.203922 0.168627
0.125490 0.211765 0.164706
0.152941 0.215686 0.176471
0.196078 0.219608 0.172549
0.266667 0.239216 0.164706
0.360784 0.262745 0.141176
0.443137 0.278431 0.121569
0.537255 0.286275 0.098039
0.611765 0.286275 0.074510
0.690196 0.290196 0.047059
0.752941 0.282353 0.043137
0.803922 0.274510 0.054902
0.858824 0.274510 0.054902
0.913725 0.274510 0.058824
0.960784 0.266667 0.062745
0.992157 0.286275 0.054902
1.000000 0.298039 0.078431
1.000000 0.309804 0.105882
1.000000 0.337255 0.117647
0.000000 0.243137 0.168627
0.000000 0.243137 0.160784
0.007843 0.231373 0.156863
0.023529 0.231373 0.160784
0.050980 0.235294 0.156863
0.090196 0.243137 0.168627
0.121569 0.243137 0.180392
0.152941 0.247059 0.192157
0.184314 0.254902 0.192157
0.215686 0.258824 0.192157
0.262745 0.266667 0.196078
0.333333 0.294118 0.196078
0.427451 0.313725 0.180392
0.501961 0.325490 0.160784
0.596078 0.341176 0.121569
0.674510 0.341176 0.078431
0.752941 0.333333 0.050980
0.807843 0.329412 0.035294
0.866667 0.333333 0.043137
0.917647 0.337255 0.062745
0.964706 0.333333 0.050980
1.000000 0.341176 0.070588
1.000000 0.356863 0.090196
0.996078 0.380392 0.109804
1.000000 0.400000 0.133333
0.000000 0.305882 0.192157
0.003922 0.301961 0.192157
0.015686 0.301961 0.188235
0.054902 0.301961 0.188235
0.101961 0.298039 0.200000
0.125490 0.298039 0.200000
0.152941 0.301961 0.211765
0.192157 0.305882 0.219608
0.227451 0.317647 0.215686
0.258824 0.321569 0.219608
0.294118 0.325490 0.235294
0.333333 0.329412 0.247059
0.411765 0.356863 0.250980
0.505882 0.380392 0.219608
0.600000 0.400000 0.176471
0.686275 0.407843 0.156863
0.752941 0.403922 0.129412
0.823529 0.415686 0.082353
0.874510 0.407843 0.047059
0.925490 0.407843 0.074510
0.972549 0.403922 0.078431
1.000000 0.419608 0.090196
1.000000 0.439216 0.113725
0.996078 0.450980 0.133333
1.000000 0.482353 0.160784
0.000000 0.349020 0.211765
0.007843 0.349020 0.211765
0.039216 0.352941 0.215686
0.090196 0.349020 0.207843
0.113725 0.345098 0.227451
0.152941 0.349020 0.235294
0.192157 0.349020 0.254902
0.219608 0.352941 0.247059
0.247059 0.360784 0.250980
0.278431 0.368627 0.258824
0.325490 0.376471 0.266667
0.368627 0.384314 0.278431
0.400000 0.392157 0.294118
0.474510 0.415686 0.286275
0.556863 0.447059 0.258824
0.650980 0.458824 0.231373
0.721569 0.466667 0.207843
0.796078 0.470588 0.172549
0.858824 0.466667 0.133333
0.917647 0.466667 0.109804
0.972549 0.474510 0.094118
1.000000 0.486275 0.094118
0.996078 0.498039 0.117647
1.000000 0.517647 0.149020
1.000000 0.529412 0.180392
0.027451 0.400000 0.243137
0.050980 0.415686 0.231373
0.082353 0.407843 0.243137
0.129412 0.415686 0.239216
0.145098 0.407843 0.239216
0.196078 0.396078 0.266667
0.223529 0.403922 0.262745
0.254902 0.400000 0.266667
0.278431 0.411765 0.274510
0.317647 0.415686 0.290196
0.349020 0.423529 0.298039
0.403922 0.431373 0.301961
0.435294 0.439216 0.313725
0.462745 0.443137 0.325490
0.533333 0.470588 0.337255
0.619608 0.498039 0.313725
0.709804 0.517647 0.286275
0.776471 0.529412 0.250980
0.835294 0.533333 0.227451
0.894118 0.533333 0.200000
0.952941 0.545098 0.172549
1.000000 0.549020 0.133333
1.000000 0.549020 0.145098
0.992157 0.580392 0.168627
1.000000 0.588235 0.196078
0.094118 0.462745 0.266667
0.117647 0.466667 0.278431
0.125490 0.462745 0.270588
0.164706 0.462745 0.270588
0.196078 0.466667 0.290196
0.223529 0.462745 0.298039
0.254902 0.458824 0.305882
0.282353 0.458824 0.305882
0.317647 0.458824 0.317647
0.356863 0.462745 0.325490
0.380392 0.478431 0.325490
0.415686 0.486275 0.337255
0.458824 0.490196 0.345098
0.505882 0.498039 0.345098
0.533333 0.509804 0.376471
0.588235 0.525490 0.392157
0.678431 0.549020 0.372549
0.749020 0.572549 0.341176
0.819608 0.584314 0.309804
0.886275 0.588235 0.290196
0.929412 0.596078 0.270588
0.992157 0.603922 0.247059
0.996078 0.607843 0.207843
1.000000 0.623529 0.192157
1.000000 0.639216 0.231373
0.149020 0.513725 0.298039
0.168627 0.521569 0.309804
0.180392 0.521569 0.313725
0.211765 0.517647 0.321569
0.227451 0.529412 0.325490
0.262745 0.509804 0.333333
0.294118 0.513725 0.329412
0.329412 0.513725 0.333333
0.352941 0.513725 0.356863
0.384314 0.521569 0.364706
0.419608 0.533333 0.360784
0.450980 0.541176 0.368627
0.482353 0.541176 0.380392
0.529412 0.552941 0.380392
0.572549 0.560784 0.400000
0.600000 0.568627 0.415686
0.647059 0.584314 0.450980
0.713725 0.607843 0.431373
0.792157 0.623529 0.407843
0.854902 0.639216 0.384314
0.913725 0.654902 0.364706
0.968627 0.658824 0.356863
0.996078 0.666667 0.321569
1.000000 0.678431 0.301961
1.000000 0.678431 0.278431
0.254902 0.600000 0.364706
0.262745 0.607843 0.372549
0.274510 0.611765 0.372549
0.290196 0.607843 0.376471
0.321569 0.600000 0.380392
0.341176 0.592157 0.388235
0.364706 0.592157 0.396078
0.403922 0.592157 0.403922
0.431373 0.584314 0.411765
0.443137 0.596078 0.419608
0.474510 0.596078 0.423529
0.509804 0.600000 0.435294
0.541176 0.611765 0.447059
0.572549 0.615686 0.450980
0.611765 0.619608 0.462745
0.643137 0.627451 0.478431
0.674510 0.643137 0.490196
0.709804 0.647059 0.513725
0.780392 0.670588 0.517647
0.835294 0.690196 0.486275
0.898039 0.705882 0.474510
0.945098 0.713725 0.447059
0.988235 0.729412 0.439216
1.000000 0.737255 0.431373
1.000000 0.745098 0.427451
0.309804 0.647059 0.407843
0.329412 0.647059 0.419608
0.337255 0.650980 0.411765
0.352941 0.639216 0.419608
0.376471 0.650980 0.407843
0.396078 0.650980 0.431373
0.419608 0.643137 0.427451
0.450980 0.639216 0.443137
0.466667 0.639216 0.447059
0.494118 0.639216 0.466667
0.529412 0.643137 0.470588
0.552941 0.643137 0.470588
0.580392 0.650980 0.494118
0.611765 0.658824 0.509804
0.643137 0.662745 0.501961
0.682353 0.666667 0.517647
0.705882 0.674510 0.529412
0.725490 0.686275 0.549020
0.772549 0.698039 0.572549
0.815686 0.713725 0.576471
0.870588 0.737255 0.560784
0.937255 0.752941 0.549020
0.964706 0.764706 0.541176
0.992157 0.780392 0.537255
1.000000 0.788235 0.533333
0.403922 0.698039 0.466667
0.411765 0.690196 0.462745
0.419608 0.701961 0.454902
0.431373 0.686275 0.474510
0.443137 0.698039 0.486275
0.462745 0.694118 0.482353
0.478431 0.690196 0.486275
0.509804 0.682353 0.490196
0.529412 0.682353 0.505882
0.545098 0.686275 0.513725
0.560784 0.690196 0.513725
0.600000 0.690196 0.525490
0.623529 0.694118 0.537255
0.639216 0.698039 0.537255
0.670588 0.709804 0.564706
0.701961 0.709804 0.564706
0.729412 0.713725 0.568627
0.756863 0.725490 0.584314
0.788235 0.729412 0.600000
0.819608 0.737255 0.623529
0.862745 0.756863 0.639216
0.909804 0.776471 0.631373
0.956863 0.788235 0.619608
0.988235 0.800000 0.607843
1.000000 0.815686 0.627451
0.470588 0.737255 0.513725
0.482353 0.737255 0.525490
0.490196 0.737255 0.513725
0.505882 0.737255 0.525490
0.509804 0.741176 0.529412
0.537255 0.733333 0.525490
0.545098 0.733333 0.529412
0.560784 0.733333 0.541176
0.584314 0.737255 0.560784
0.607843 0.729412 0.564706
0.623529 0.729412 0.568627
0.643137 0.733333 0.568627
0.666667 0.729412 0.576471
0.690196 0.737255 0.580392
0.705882 0.745098 0.607843
0.733333 0.749020 0.619608
0.768627 0.752941 0.607843
0.780392 0.764706 0.615686
0.807843 0.764706 0.639216
0.835294 0.768627 0.658824
0.850980 0.776471 0.658824
0.894118 0.800000 0.705882
0.929412 0.807843 0.686275
0.964706 0.827451 0.678431
1.000000 0.835294 0.686275
0.556863 0.780392 0.572549
0.556863 0.780392 0.572549
0.556863 0.780392 0.572549
0.568627 0.780392 0.576471
0.584314 0.780392 0.572549
0.596078 0.776471 0.584314
0.607843 0.780392 0.588235
0.623529 0.776471 0.600000
0.643137 0.772549 0.603922
0.658824 0.768627 0.611765
0.670588 0.768627 0.615686
0.690196 0.772549 0.619608
0.713725 0.776471 0.635294
0.729412 0.776471 0.635294
0.749020 0.776471 0.643137
0.768627 0.784314 0.647059
0.796078 0.784314 0.654902
0.811765 0.796078 0.658824
0.827451 0.803922 0.678431
0.850980 0.807843 0.690196
0.870588 0.807843 0.709804
0.894118 0.815686 0.721569
0.917647 0.831373 0.749020
0.956863 0.839216 0.745098
0.992157 0.850980 0.764706
0.650980 0.831373 0.647059
0.658824 0.827451 0.650980
0.658824 0.819608 0.647059
0.666667 0.819608 0.647059
0.678431 0.823529 0.654902
0.678431 0.831373 0.658824
0.682353 0.827451 0.658824
0.709804 0.819608 0.658824
0.717647 0.819608 0.666667
0.721569 0.819608 0.666667
0.745098 0.811765 0.670588
0.756863 0.811765 0.682353
0.760784 0.815686 0.686275
0.784314 0.823529 0.690196
0.800000 0.819608 0.694118
0.811765 0.823529 0.709804
0.839216 0.823529 0.709804
0.847059 0.823529 0.721569
0.874510 0.835294 0.729412
0.878431 0.831373 0.737255
0.901961 0.843137 0.760784
0.917647 0.835294 0.760784
0.933333 0.843137 0.772549
0.945098 0.858824 0.807843
0.984314 0.874510 0.792157
0.709804 0.847059 0.682353
0.713725 0.850980 0.694118
0.725490 0.847059 0.686275
0.725490 0.850980 0.690196
0.725490 0.847059 0.713725
0.745098 0.847059 0.701961
0.745098 0.847059 0.709804
0.756863 0.854902 0.701961
0.768627 0.847059 0.709804
0.780392 0.847059 0.721569
0.788235 0.847059 0.733333
0.800000 0.843137 0.717647
0.811765 0.847059 0.725490
0.835294 0.850980 0.745098
0.850980 0.843137 0.745098
0.854902 0.854902 0.760784
0.874510 0.850980 0.756863
0.882353 0.850980 0.760784
0.898039 0.854902 0.776471
0.905882 0.862745 0.784314
0.913725 0.862745 0.788235
0.941176 0.866667 0.807843
0.952941 0.866667 0.815686
0.956863 0.870588 0.815686
0.964706 0.886275 0.850980
0.772549 0.874510 0.737255
0.788235 0.882353 0.749020
0.776471 0.874510 0.760784
0.792157 0.874510 0.752941
0.784314 0.878431 0.752941
0.811765 0.878431 0.752941
0.800000 0.874510 0.756863
0.811765 0.866667 0.764706
0.819608 0.874510 0.772549
0.831373 0.870588 0.772549
0.839216 0.870588 0.776471
0.850980 0.870588 0.784314
0.854902 0.874510 0.788235
0.870588 0.866667 0.788235
0.882353 0.874510 0.784314
0.898039 0.870588 0.796078
0.901961 0.874510 0.811765
0.905882 0.878431 0.815686
0.925490 0.878431 0.815686
0.941176 0.878431 0.827451
0.949020 0.886275 0.835294
0.949020 0.886275 0.823529
0.956863 0.894118 0.843137
0.972549 0.901961 0.847059
0.976471 0.898039 0.854902
0.839216 0.901961 0.796078
0.843137 0.898039 0.796078
0.839216 0.901961 0.796078
0.839216 0.901961 0.800000
0.850980 0.901961 0.800000
0.850980 0.898039 0.803922
0.862745 0.894118 0.803922
0.862745 0.894118 0.803922
0.878431 0.898039 0.811765
0.882353 0.901961 0.823529
0.882353 0.901961 0.823529
0.886275 0.898039 0.823529
0.905882 0.894118 0.835294
0.901961 0.898039 0.827451
0.921569 0.894118 0.831373
0.925490 0.898039 0.835294
0.933333 0.905882 0.843137
0.929412 0.905882 0.850980
0.941176 0.901961 0.854902
0.949020 0.909804 0.862745
0.956863 0.909804 0.862745
0.964706 0.909804 0.858824
0.968627 0.921569 0.866667
0.984314 0.917647 0.878431
0.992157 0.925490 0.886275
0.890196 0.929412 0.835294
0.890196 0.925490 0.843137
0.894118 0.925490 0.843137
0.894118 0.933333 0.839216
0.894118 0.925490 0.843137
0.898039 0.929412 0.847059
0.898039 0.929412 0.847059
0.898039 0.929412 0.847059
0.913725 0.925490 0.850980
0.909804 0.925490 0.858824
0.913725 0.929412 0.870588
0.933333 0.925490 0.866667
0.921569 0.933333 0.866667
0.937255 0.929412 0.870588
0.945098 0.933333 0.874510
0.949020 0.933333 0.886275
0.960784 0.937255 0.874510
0.960784 0.937255 0.882353
0.960784 0.937255 0.882353
0.972549 0.937255 0.901961
0.976471 0.949020 0.886275
0.988235 0.949020 0.909804
0.976471 0.945098 0.894118
0.996078 0.945098 0.909804
1.000000 0.945098 0.894118
0.000000 0.066667 0.082353
0.000000 0.070588 0.086275
0.000000 0.070588 0.086275
0.011765 0.070588 0.082353
0.027451 0.070588 0.086275
0.043137 0.074510 0.086275
0.078431 0.078431 0.086275
0.125490 0.078431 0.086275
0.160784 0.074510 0.086275
0.211765 0.070588 0.086275
0.282353 0.058824 0.094118
0.349020 0.031373 0.090196
0.407843 0.003922 0.086275
0.482353 0.000000 0.082353
0.560784 0.000000 0.078431
0.631373 0.000000 0.078431
0.701961 0.000000 0.082353
0.776471 0.003922 0.074510
0.839216 0.000000 0.074510
0.898039 0.000000 0.082353
0.956863 0.000000 0.066667
0.992157 0.003922 0.062745
0.996078 0.003922 0.082353
0.992157 0.003922 0.086275
0.996078 0.000000 0.101961
0.000000 0.070588 0.086275
0.000000 0.078431 0.074510
0.000000 0.078431 0.090196
0.000000 0.078431 0.082353
0.027451 0.078431 0.101961
0.058824 0.074510 0.086275
0.082353 0.090196 0.086275
0.121569 0.082353 0.086275
0.172549 0.074510 0.086275
0.223529 0.070588 0.082353
0.274510 0.070588 0.086275
0.341176 0.054902 0.090196
0.407843 0.019608 0.090196
0.490196 0.000000 0.090196
0.560784 0.000000 0.086275
0.635294 0.000000 0.082353
0.709804 0.000000 0.074510
0.780392 0.003922 0.070588
0.843137 0.000000 0.078431
0.898039 0.000000 0.078431
0.952941 0.003922 0.066667
1.000000 0.000000 0.070588
1.000000 0.000000 0.082353
1.000000 0.000000 0.086275
1.000000 0.000000 0.094118
0.000000 0.082353 0.086275
0.000000 0.082353 0.074510
0.000000 0.078431 0.090196
0.003922 0.086275 0.098039
0.015686 0.086275 0.086275
0.054902 0.094118 0.098039
0.086275 0.094118 0.090196
0.125490 0.086275 0.082353
0.176471 0.094118 0.082353
0.235294 0.082353 0.086275
0.282353 0.078431 0.086275
0.349020 0.066667 0.082353
0.419608 0.039216 0.082353
0.486275 0.003922 0.086275
0.560784 0.000000 0.086275
0.639216 0.000000 0.082353
0.717647 0.000000 0.086275
0.776471 0.000000 0.070588
0.831373 0.003922 0.062745
0.890196 0.007843 0.070588
0.949020 0.003922 0.070588
1.000000 0.000000 0.070588
0.996078 0.003922 0.074510
1.000000 0.000000 0.082353
0.996078 0.000000 0.101961
0.011765 0.090196 0.094118
0.000000 0.078431 0.082353
0.003922 0.086275 0.098039
0.000000 0.098039 0.082353
0.011765 0.090196 0.086275
0.043137 0.098039 0.098039
0.086275 0.101961 0.098039
0.133333 0.101961 0.090196
0.180392 0.105882 0.090196
0.219608 0.098039 0.078431
0.282353 0.094118 0.086275
0.356863 0.082353 0.090196
0.419608 0.070588 0.094118
0.494118 0.039216 0.082353
0.568627 0.007843 0.078431
0.643137 0.000000 0.078431
0.713725 0.000000 0.082353
0.772549 0.000000 0.070588
0.843137 0.000000 0.070588
0.898039 0.003922 0.070588
0.952941 0.000000 0.078431
1.000000 0.003922 0.074510
1.000000 0.000000 0.070588
0.992157 0.000000 0.078431
0.996078 0.000000 0.109804
0.000000 0.101961 0.105882
0.000000 0.098039 0.113725
0.000000 0.098039 0.101961
0.000000 0.101961 0.098039
0.007843 0.101961 0.101961
0.023529 0.101961 0.098039
0.074510 0.117647 0.094118
0.133333 0.121569 0.086275
0.188235 0.121569 0.090196
0.239216 0.121569 0.090196
0.305882 0.117647 0.078431
0.364706 0.109804 0.086275
0.439216 0.105882 0.094118
0.501961 0.086275 0.094118
0.576471 0.054902 0.074510
0.639216 0.015686 0.086275
0.709804 0.000000 0.074510
0.776471 0.003922 0.082353
0.843137 0.000000 0.062745
0.894118 0.000000 0.066667
0.945098 0.000000 0.066667
0.992157 0.000000 0.078431
1.000000 0.000000 0.082353
1.000000 0.000000 0.078431
1.000000 0.003922 0.105882
0.000000 0.113725 0.098039
0.000000 0.113725 0.105882
0.000000 0.117647 0.117647
0.000000 0.121569 0.117647
0.000000 0.117647 0.117647
0.011765 0.125490 0.109804
0.062745 0.125490 0.113725
0.117647 0.137255 0.113725
0.192157 0.145098 0.098039
0.254902 0.145098 0.098039
0.313725 0.149020 0.086275
0.372549 0.149020 0.082353
0.443137 0.141176 0.078431
0.521569 0.141176 0.078431
0.596078 0.121569 0.078431
0.670588 0.101961 0.082353
0.737255 0.070588 0.082353
0.792157 0.031373 0.062745
0.854902 0.000000 0.066667
0.909804 0.000000 0.070588
0.952941 0.003922 0.066667
1.000000 0.000000 0.090196
1.000000 0.000000 0.086275
1.000000 0.066667 0.109804
1.000000 0.149020 0.113725
0.000000 0.137255 0.113725
0.000000 0.137255 0.113725
0.000000 0.137255 0.121569
0.007843 0.133333 0.121569
0.000000 0.145098 0.113725
0.039216 0.145098 0.125490
0.058824 0.145098 0.133333
0.090196 0.156863 0.133333
0.160784 0.168627 0.125490
0.239216 0.176471 0.113725
0.317647 0.180392 0.101961
0.392157 0.188235 0.094118
0.458824 0.184314 0.082353
0.537255 0.176471 0.078431
0.607843 0.176471 0.070588
0.674510 0.164706 0.070588
0.741176 0.149020 0.074510
0.811765 0.137255 0.082353
0.858824 0.129412 0.078431
0.909804 0.117647 0.070588
0.960784 0.113725 0.070588
1.000000 0.121569 0.074510
1.000000 0.145098 0.082353
0.996078 0.176471 0.090196
1.000000 0.219608 0.117647
0.000000 0.160784 0.129412
0.000000 0.160784 0.129412
0.003922 0.168627 0.121569
0.000000 0.160784 0.121569
0.023529 0.168627 0.141176
0.047059 0.168627 0.137255
0.074510 0.176471 0.141176
0.098039 0.172549 0.149020
0.141176 0.188235 0.149020
0.223529 0.200000 0.145098
0.298039 0.219608 0.125490
0.384314 0.223529 0.113725
0.466667 0.231373 0.090196
0.545098 0.231373 0.086275
0.619608 0.227451 0.086275
0.678431 0.223529 0.070588
0.741176 0.215686 0.070588
0.807843 0.207843 0.074510
0.862745 0.200000 0.070588
0.913725 0.196078 0.070588
0.960784 0.196078 0.078431
1.000000 0.207843 0.082353
0.996078 0.223529 0.090196
1.000000 0.243137 0.101961
1.000000 0.282353 0.117647
0.000000 0.203922 0.133333
0.000000 0.196078 0.152941
0.000000 0.196078 0.149020
0.007843 0.192157 0.152941
0.035294 0.203922 0.164706
0.070588 0.200000 0.156863
0.098039 0.207843 0.160784
0.125490 0.211765 0.164706
0.156863 0.219608 0.176471
0.200000 0.223529 0.176471
0.270588 0.243137 0.168627
0.364706 0.266667 0.149020
0.443137 0.278431 0.129412
0.537255 0.286275 0.113725
0.607843 0.282353 0.078431
0.678431 0.286275 0.054902
0.749020 0.282353 0.062745
0.803922 0.270588 0.074510
0.862745 0.266667 0.074510
0.905882 0.274510 0.070588
0.956863 0.274510 0.074510
1.000000 0.282353 0.078431
1.000000 0.294118 0.094118
1.000000 0.313725 0.117647
1.000000 0.341176 0.125490
0.000000 0.243137 0.152941
0.000000 0.243137 0.152941
0.007843 0.239216 0.160784
0.011765 0.243137 0.164706
0.058824 0.243137 0.180392
0.094118 0.247059 0.176471
0.121569 0.243137 0.184314
0.152941 0.247059 0.192157
0.180392 0.250980 0.188235
0.215686 0.266667 0.200000
0.254902 0.270588 0.203922
0.321569 0.298039 0.203922
0.427451 0.317647 0.164706
0.501961 0.329412 0.152941
0.600000 0.337255 0.121569
0.686275 0.341176 0.094118
0.756863 0.337255 0.070588
0.807843 0.333333 0.062745
0.858824 0.329412 0.062745
0.905882 0.337255 0.074510
0.960784 0.337255 0.078431
1.000000 0.345098 0.090196
1.000000 0.360784 0.098039
0.992157 0.384314 0.125490
1.000000 0.400000 0.133333
0.000000 0.301961 0.200000
0.003922 0.301961 0.192157
0.011765 0.305882 0.188235
0.050980 0.301961 0.196078
0.101961 0.298039 0.200000
0.133333 0.298039 0.211765
0.160784 0.298039 0.211765
0.196078 0.305882 0.219608
0.215686 0.309804 0.223529
